X:1
T:Off with Your Jacket
M:2/4
L:1/8
R:Reel
S:William Sidney Mount manuscripts (Long Island, NY, c. 1840-1850's)
Z:AK/Fiddler's Companion
K:F
|: G | Ff/d/ cd/c/ | Af/d/ c/A/G/A/ | Ff/d/ cd/c/ | A/c/G/B/ AF/F/ :|
|: A | d2d2 | e/f/e/d/ ^c/d/c/A/ | d2 d/d/d/d | e/f/g/e/ f2 :|

